X: 13
T:Laudnum Bunches, Headington 1
M:6/8
L:1/8
A:Headington
P:A(A2BA)4
K:D
Q:280
P:A
A/G/|FGA Bcd|e<dB B2A/G/|FGA Bcd|f2e  d2||
P:B
z|fdf age|e>ee ede   |faf ede|f>dB B2||
